X: 11481
Q: "Slow."
M: C
L: 1/8
K: G
[|\
P: Addition by Alex. Rodger.
[|\
d2Bd g2fe | d2BG (BA) Gd |\
d2Bd g2f(e/d/) | g2f(e/d/) {f}e2 dd |\
=f2ed g2ge | d2BG (BA)GG |\


